X: 43263
T: Woman Of The House, The
R: reel
M: 4/4
K: Gmajor
|:"G"DB/A/BA {c}B2BA|G2A/B/d eBdB|"D"(3ABA GB A2 (3Bcd|"C"eB (3BAB gedB|
"G"DB/A/BA {c}B2BA|GA (3Bcd eBdB|GABG "D"(3ABA GA|1 (3BAG AG "G"{F}EFGE:|2 (3BAG AG "G"{F}EFGe||
|:"Bm"f{g}ffd edBd|"G"fd/e/fd {f}edBe|"Bm"f{g}ffd edB2|"D"(3efa {b}ag ea{b}ag|
"Bm"f2fd ed (3Bcd|"G"g2ge dcBA|GABG "D"(3ABA GA|1 BGAG "G"{F}EFGe:|2 BGAG "G"{F}EFG2||

